images/Logo.svg

<svg width="193" height="36" viewBox="0 0 193 36" fill="none" xmlns="http://www.w3.org/2000/svg">
<g clip-path="url(#clip0_122_599)">
<path fill-rule="evenodd" clip-rule="evenodd" d="M3.85714 0C1.72691 0 0 1.72691 0 3.85714V32.1429C0 34.2732 1.72689 36 3.85714 36H27C29.1303 36 30.8571 34.2732 30.8571 32.1429V3.85714C30.8571 1.72691 29.1303 0 27 0H3.85714ZM2.57143 3.85714C2.57143 3.14707 3.14707 2.57143 3.85714 2.57143H5.14286V33.4286H3.85714C3.14707 33.4286 2.57143 32.853 2.57143 32.1429V3.85714ZM18.7786 13.5679C19.0962 12.9327 19.8684 12.6753 20.5035 12.9929C21.1387 13.3105 21.3961 14.0827 21.0785 14.7178L17.2214 22.4321C16.9038 23.0673 16.1316 23.3247 15.4965 23.0071C14.8613 22.6895 14.6039 21.9173 14.9215 21.2822L18.7786 13.5679ZM14.0877 14.198C14.5898 14.7001 14.5898 15.5142 14.0877 16.0163L12.104 18L14.0877 19.9837C14.5898 20.4858 14.5898 21.2999 14.0877 21.802C13.5856 22.3041 12.7715 22.3041 12.2694 21.802L9.37659 18.9091C8.87451 18.4071 8.87451 17.5929 9.37659 17.0909L12.2694 14.198C12.7715 13.6959 13.5856 13.6959 14.0877 14.198ZM21.9123 16.0163C21.4102 15.5142 21.4102 14.7001 21.9123 14.198C22.4144 13.6959 23.2285 13.6959 23.7306 14.198L26.6234 17.0909C27.1255 17.5929 27.1255 18.4071 26.6234 18.9091L23.7306 21.802C23.2285 22.3041 22.4144 22.3041 21.9123 21.802C21.4102 21.2999 21.4102 20.4858 21.9123 19.9837L23.896 18L21.9123 16.0163Z" fill="#062630"/>
<path d="M7.42859 12H29.4286V24H7.42859V12Z" fill="#062630"/>
<path d="M14.6828 12.6953L11.9478 9.94775M20.4523 18.4609L17.6543 15.6628M16.061 16.3877V22.2321M18.1641 24.3367C18.1641 25.4999 17.2222 26.4419 16.0591 26.4419C14.8959 26.4419 13.9539 25.4999 13.9539 24.3367C13.9539 23.1737 14.8959 22.2317 16.0591 22.2317C17.2222 22.2317 18.1641 23.1737 18.1641 24.3367ZM24.0673 19.9197C24.0673 21.0829 23.1253 22.0249 21.9622 22.0249C20.799 22.0249 19.8571 21.0829 19.8571 19.9197C19.8571 18.7567 20.799 17.8147 21.9622 17.8147C23.1253 17.8147 24.0673 18.7567 24.0673 19.9197ZM18.1641 14.2838C18.1641 15.447 17.2222 16.389 16.0591 16.389C14.8959 16.389 13.9539 15.447 13.9539 14.2838C13.9539 13.1207 14.8959 12.1787 16.0591 12.1787C17.2222 12.1787 18.1641 13.1207 18.1641 14.2838Z" stroke="#FF9A60" stroke-width="1.42162" stroke-linecap="round" stroke-linejoin="round"/>
<path d="M52.3853 12.5205V24.5H49.5853V12.5205H45.4417V10.3154H56.652L56.3648 12.5205H52.3853ZM59.9208 19.8949C60.0028 20.9137 60.3037 21.6487 60.8233 22.1C61.343 22.5513 61.9755 22.7769 62.7208 22.7769C63.2404 22.7769 63.7293 22.6949 64.1874 22.5308C64.6456 22.3667 65.0968 22.1376 65.5413 21.8436L66.6695 23.3923C66.1635 23.8162 65.5584 24.1581 64.8541 24.4179C64.1567 24.6778 63.3874 24.8077 62.5464 24.8077C61.3704 24.8077 60.3789 24.565 59.5721 24.0795C58.7721 23.594 58.1669 22.9205 57.7567 22.059C57.3464 21.1974 57.1413 20.206 57.1413 19.0846C57.1413 18.0043 57.3396 17.0299 57.7362 16.1615C58.1396 15.2932 58.7208 14.606 59.4798 14.1C60.2456 13.5872 61.1652 13.3308 62.2387 13.3308C63.7293 13.3308 64.9122 13.8162 65.7874 14.7872C66.6627 15.7581 67.1003 17.1017 67.1003 18.8179C67.1003 19.2145 67.0832 19.5735 67.049 19.8949H59.9208ZM62.249 15.2385C61.5926 15.2385 61.0524 15.4744 60.6285 15.9462C60.2114 16.4179 59.9652 17.1564 59.89 18.1615H64.4644C64.4507 17.2453 64.2627 16.5308 63.9003 16.0179C63.5379 15.4983 62.9874 15.2385 62.249 15.2385ZM74.1844 22.6333C74.6631 22.6333 75.1109 22.5444 75.528 22.3667C75.9451 22.1889 76.352 21.9632 76.7485 21.6897L77.9793 23.4231C77.5007 23.8265 76.9229 24.1581 76.246 24.4179C75.5691 24.6778 74.8443 24.8077 74.0716 24.8077C72.9297 24.8077 71.952 24.5718 71.1383 24.1C70.3314 23.6282 69.7126 22.965 69.2819 22.1103C68.8511 21.2556 68.6357 20.2641 68.6357 19.1359C68.6357 18.0214 68.8545 17.0265 69.2921 16.1513C69.7366 15.2761 70.3656 14.5889 71.1793 14.0897C71.9998 13.5838 72.9776 13.3308 74.1126 13.3308C74.8921 13.3308 75.5964 13.4436 76.2255 13.6692C76.8614 13.888 77.4426 14.2162 77.9691 14.6538L76.7691 16.3154C76.3656 16.0419 75.9485 15.8299 75.5178 15.6795C75.087 15.5291 74.646 15.4538 74.1947 15.4538C73.3947 15.4538 72.7417 15.7444 72.2357 16.3256C71.7366 16.9 71.487 17.8368 71.487 19.1359C71.487 20.4214 71.7434 21.3274 72.2562 21.8538C72.7691 22.3735 73.4118 22.6333 74.1844 22.6333ZM82.5302 9.04359V14.859C82.9814 14.3462 83.4874 13.9632 84.0481 13.7103C84.6156 13.4573 85.2071 13.3308 85.8225 13.3308C86.8208 13.3308 87.5695 13.6145 88.0686 14.1821C88.5746 14.7427 88.8276 15.5325 88.8276 16.5513V24.5H86.1199V17.1564C86.1199 16.5 86.0173 16.035 85.8122 15.7615C85.6139 15.488 85.272 15.3513 84.7866 15.3513C84.349 15.3513 83.9387 15.4983 83.5558 15.7923C83.1729 16.0795 82.831 16.4316 82.5302 16.8487V24.5H79.8225V9.31026L82.5302 9.04359Z" fill="#062630"/>
<path d="M100.216 14.859C100.578 14.3872 101.006 14.0145 101.498 13.741C101.997 13.4675 102.534 13.3308 103.108 13.3308C104.524 13.3308 105.549 13.8504 106.185 14.8897C106.821 15.9222 107.139 17.3068 107.139 19.0436C107.139 20.1581 106.975 21.1496 106.647 22.0179C106.319 22.8863 105.83 23.5701 105.18 24.0692C104.537 24.5615 103.748 24.8077 102.811 24.8077C101.628 24.8077 100.702 24.3598 100.031 23.4641L99.9084 24.5H97.5084V9.3L100.216 9.01282V14.859ZM102.114 22.7872C102.804 22.7872 103.344 22.4932 103.734 21.9051C104.124 21.3171 104.319 20.3735 104.319 19.0744C104.319 17.7 104.141 16.7393 103.785 16.1923C103.43 15.6385 102.941 15.3615 102.319 15.3615C101.867 15.3615 101.467 15.4983 101.119 15.7718C100.777 16.0453 100.476 16.3838 100.216 16.7872V21.6487C100.449 22.0111 100.722 22.2915 101.037 22.4897C101.351 22.688 101.71 22.7872 102.114 22.7872ZM113.126 13.3308C114.206 13.3308 115.122 13.5667 115.875 14.0385C116.627 14.5103 117.198 15.1769 117.587 16.0385C117.984 16.8932 118.182 17.8949 118.182 19.0436C118.182 20.8077 117.741 22.2094 116.859 23.2487C115.977 24.288 114.729 24.8077 113.116 24.8077C111.502 24.8077 110.254 24.2983 109.372 23.2795C108.49 22.2538 108.049 20.8487 108.049 19.0641C108.049 17.9291 108.247 16.9308 108.644 16.0692C109.04 15.2077 109.615 14.5376 110.367 14.059C111.126 13.5735 112.046 13.3308 113.126 13.3308ZM113.126 15.3718C112.367 15.3718 111.799 15.6692 111.423 16.2641C111.054 16.859 110.869 17.7923 110.869 19.0641C110.869 20.3496 111.054 21.2897 111.423 21.8846C111.793 22.4726 112.357 22.7667 113.116 22.7667C113.875 22.7667 114.439 22.4726 114.808 21.8846C115.177 21.2897 115.362 20.3427 115.362 19.0436C115.362 17.7786 115.177 16.8521 114.808 16.2641C114.439 15.6692 113.878 15.3718 113.126 15.3718ZM124.231 13.3308C125.311 13.3308 126.227 13.5667 126.979 14.0385C127.731 14.5103 128.302 15.1769 128.692 16.0385C129.089 16.8932 129.287 17.8949 129.287 19.0436C129.287 20.8077 128.846 22.2094 127.964 23.2487C127.082 24.288 125.834 24.8077 124.22 24.8077C122.607 24.8077 121.359 24.2983 120.477 23.2795C119.595 22.2538 119.154 20.8487 119.154 19.0641C119.154 17.9291 119.352 16.9308 119.749 16.0692C120.145 15.2077 120.719 14.5376 121.472 14.059C122.231 13.5735 123.15 13.3308 124.231 13.3308ZM124.231 15.3718C123.472 15.3718 122.904 15.6692 122.528 16.2641C122.159 16.859 121.974 17.7923 121.974 19.0641C121.974 20.3496 122.159 21.2897 122.528 21.8846C122.897 22.4726 123.461 22.7667 124.22 22.7667C124.979 22.7667 125.543 22.4726 125.913 21.8846C126.282 21.2897 126.466 20.3427 126.466 19.0436C126.466 17.7786 126.282 16.8521 125.913 16.2641C125.543 15.6692 124.983 15.3718 124.231 15.3718ZM133.571 9.01282V24.5H130.863V9.3L133.571 9.01282ZM140.71 13.6385L136.679 18.4795L141.099 24.5H137.91L133.725 18.5513L137.725 13.6385H140.71Z" fill="#062630"/>
<path d="M153.975 22.6333C154.454 22.6333 154.902 22.5444 155.319 22.3667C155.736 22.1889 156.143 21.9632 156.539 21.6897L157.77 23.4231C157.291 23.8265 156.714 24.1581 156.037 24.4179C155.36 24.6778 154.635 24.8077 153.862 24.8077C152.72 24.8077 151.743 24.5718 150.929 24.1C150.122 23.6282 149.503 22.965 149.073 22.1103C148.642 21.2556 148.426 20.2641 148.426 19.1359C148.426 18.0214 148.645 17.0265 149.083 16.1513C149.527 15.2761 150.156 14.5889 150.97 14.0897C151.79 13.5838 152.768 13.3308 153.903 13.3308C154.683 13.3308 155.387 13.4436 156.016 13.6692C156.652 13.888 157.233 14.2162 157.76 14.6538L156.56 16.3154C156.156 16.0419 155.739 15.8299 155.308 15.6795C154.878 15.5291 154.437 15.4538 153.985 15.4538C153.185 15.4538 152.532 15.7444 152.026 16.3256C151.527 16.9 151.278 17.8368 151.278 19.1359C151.278 20.4214 151.534 21.3274 152.047 21.8538C152.56 22.3735 153.202 22.6333 153.975 22.6333ZM164.782 9.3V21.341C164.782 21.8128 164.922 22.1479 165.203 22.3462C165.483 22.5444 165.856 22.6436 166.321 22.6436C166.615 22.6436 166.899 22.6128 167.172 22.5513C167.446 22.4829 167.705 22.4009 167.952 22.3051L168.618 24.1513C168.276 24.3291 167.859 24.4829 167.367 24.6128C166.881 24.7427 166.317 24.8077 165.675 24.8077C164.492 24.8077 163.596 24.4692 162.987 23.7923C162.379 23.1154 162.075 22.2026 162.075 21.0538V11.2179H158.823V9.3H164.782ZM173.425 13.6385V21.1667C173.425 21.7547 173.542 22.1684 173.774 22.4077C174.007 22.647 174.345 22.7667 174.79 22.7667C175.214 22.7667 175.627 22.6402 176.031 22.3872C176.434 22.1274 176.762 21.7991 177.015 21.4026V13.6385H179.723V24.5H177.364L177.22 23.1667C176.831 23.7 176.331 24.1068 175.723 24.3872C175.114 24.6675 174.485 24.8077 173.836 24.8077C172.79 24.8077 172.007 24.5137 171.487 23.9256C170.974 23.3308 170.718 22.5205 170.718 21.4949V13.6385H173.425ZM184.53 14.859C184.893 14.3872 185.32 14.0145 185.812 13.741C186.311 13.4675 186.848 13.3308 187.422 13.3308C188.838 13.3308 189.863 13.8504 190.499 14.8897C191.135 15.9222 191.453 17.3068 191.453 19.0436C191.453 20.1581 191.289 21.1496 190.961 22.0179C190.633 22.8863 190.144 23.5701 189.494 24.0692C188.852 24.5615 188.062 24.8077 187.125 24.8077C185.942 24.8077 185.016 24.3598 184.346 23.4641L184.222 24.5H181.822V9.3L184.53 9.01282V14.859ZM186.428 22.7872C187.118 22.7872 187.658 22.4932 188.048 21.9051C188.438 21.3171 188.633 20.3735 188.633 19.0744C188.633 17.7 188.455 16.7393 188.099 16.1923C187.744 15.6385 187.255 15.3615 186.633 15.3615C186.181 15.3615 185.781 15.4983 185.433 15.7718C185.091 16.0453 184.79 16.3838 184.53 16.7872V21.6487C184.763 22.0111 185.036 22.2915 185.351 22.4897C185.665 22.688 186.024 22.7872 186.428 22.7872Z" fill="#062630"/>
</g>
<defs>
<clipPath id="clip0_122_599">
<rect width="192.857" height="36" fill="white"/>
</clipPath>
</defs>
</svg>

<svg xmlns="http://www.w3.org/2000/svg" width="193" height="36" fill="none" viewBox="0 0 193 36"><g clip-path="url(#a)"><path fill="#062630" fill-rule="evenodd" d="M3.857 0A3.857 3.857 0 0 0 0 3.857v28.286A3.857 3.857 0 0 0 3.857 36H27a3.857 3.857 0 0 0 3.857-3.857V3.857A3.857 3.857 0 0 0 27 0H3.857ZM2.571 3.857c0-.71.576-1.286 1.286-1.286h1.286V33.43H3.857c-.71 0-1.286-.576-1.286-1.286V3.857Zm16.208 9.71a1.286 1.286 0 1 1 2.3 1.15l-3.858 7.715a1.286 1.286 0 1 1-2.3-1.15l3.858-7.714Zm-4.691.631a1.286 1.286 0 0 1 0 1.818L12.104 18l1.984 1.984a1.286 1.286 0 0 1-1.819 1.818l-2.892-2.893a1.286 1.286 0 0 1 0-1.818l2.892-2.893a1.286 1.286 0 0 1 1.819 0Zm7.824 1.818a1.286 1.286 0 0 1 1.819-1.818l2.892 2.893a1.286 1.286 0 0 1 0 1.818l-2.892 2.893a1.286 1.286 0 0 1-1.819-1.818L23.896 18l-1.984-1.984Z" clip-rule="evenodd"/><path fill="#062630" d="M7.429 12h22v12h-22V12Z"/><path stroke="#FF9A60" stroke-linecap="round" stroke-linejoin="round" stroke-width="1.422" d="m14.683 12.695-2.735-2.747m8.504 8.513-2.798-2.798m-1.593.725v5.844m2.103 2.105a2.105 2.105 0 1 1-4.209.001 2.105 2.105 0 0 1 4.21-.001Zm5.903-4.417a2.104 2.104 0 1 1-4.209.001 2.104 2.104 0 0 1 4.21-.001Zm-5.903-5.636a2.105 2.105 0 1 1-4.209.001 2.105 2.105 0 0 1 4.21-.001Z"/><path fill="#062630" d="M52.385 12.52V24.5h-2.8V12.52h-4.144v-2.205h11.21l-.286 2.206h-3.98Zm7.536 7.375c.082 1.019.383 1.754.902 2.205.52.451 1.152.677 1.898.677.52 0 1.008-.082 1.466-.246.458-.164.91-.393 1.354-.687l1.128 1.548a6.066 6.066 0 0 1-1.815 1.026c-.698.26-1.467.39-2.308.39-1.176 0-2.167-.243-2.974-.729a4.645 4.645 0 0 1-1.816-2.02c-.41-.862-.615-1.853-.615-2.974 0-1.08.198-2.055.595-2.924.403-.868.985-1.555 1.744-2.061.765-.513 1.685-.77 2.759-.77 1.49 0 2.673.486 3.548 1.457.875.971 1.313 2.315 1.313 4.03 0 .398-.017.756-.051 1.078H59.92Zm2.328-4.656c-.657 0-1.197.235-1.62.707-.418.472-.664 1.21-.74 2.216h4.575c-.013-.917-.201-1.631-.564-2.144-.362-.52-.913-.78-1.651-.78Zm11.935 7.394c.479 0 .927-.089 1.344-.266a6.952 6.952 0 0 0 1.22-.677l1.231 1.733a5.997 5.997 0 0 1-1.733.995c-.677.26-1.402.39-2.175.39-1.141 0-2.12-.236-2.933-.708a4.704 4.704 0 0 1-1.856-1.99c-.431-.854-.647-1.846-.647-2.974 0-1.115.22-2.11.657-2.985a5.047 5.047 0 0 1 1.887-2.061c.82-.506 1.798-.76 2.933-.76.78 0 1.484.114 2.113.34a5.516 5.516 0 0 1 1.744.984l-1.2 1.661a5.397 5.397 0 0 0-1.251-.636 3.987 3.987 0 0 0-1.323-.225c-.8 0-1.453.29-1.96.872-.499.574-.748 1.51-.748 2.81 0 1.285.256 2.191.77 2.718.512.52 1.155.78 1.927.78Zm8.346-13.59v5.816a4.468 4.468 0 0 1 1.518-1.149 4.312 4.312 0 0 1 1.774-.38c.999 0 1.747.284 2.246.852.506.56.76 1.35.76 2.37V24.5H86.12v-7.344c0-.656-.103-1.121-.308-1.394-.198-.274-.54-.41-1.026-.41-.437 0-.847.146-1.23.44-.383.287-.725.64-1.026 1.057V24.5h-2.708V9.31l2.708-.266ZM100.216 14.859a4.15 4.15 0 0 1 1.282-1.118 3.298 3.298 0 0 1 1.61-.41c1.416 0 2.441.52 3.077 1.559.636 1.032.954 2.417.954 4.154 0 1.114-.164 2.106-.492 2.974-.329.868-.817 1.552-1.467 2.051-.643.492-1.432.739-2.369.739-1.183 0-2.11-.448-2.78-1.344l-.123 1.036h-2.4V9.3l2.708-.287v5.846Zm1.897 7.928c.691 0 1.231-.294 1.621-.882.39-.588.584-1.532.584-2.83 0-1.375-.177-2.336-.533-2.883-.355-.553-.844-.83-1.467-.83-.451 0-.851.136-1.2.41a4.213 4.213 0 0 0-.902 1.015v4.862c.232.362.506.642.82.84.315.199.674.298 1.077.298Zm11.013-9.456c1.08 0 1.996.236 2.748.708.753.471 1.324 1.138 1.713 2 .397.854.595 1.856.595 3.005 0 1.764-.441 3.165-1.323 4.205-.882 1.039-2.13 1.559-3.744 1.559-1.613 0-2.861-.51-3.743-1.529-.882-1.025-1.323-2.43-1.323-4.215 0-1.135.198-2.133.595-2.995.396-.861.971-1.531 1.723-2.01.759-.486 1.678-.728 2.759-.728Zm0 2.04c-.759 0-1.327.298-1.703.893-.369.595-.554 1.528-.554 2.8 0 1.286.185 2.226.554 2.82.369.589.933.883 1.692.883.759 0 1.324-.294 1.693-.882.369-.595.554-1.542.554-2.841 0-1.265-.185-2.192-.554-2.78-.369-.595-.93-.892-1.682-.892Zm11.104-2.04c1.081 0 1.997.236 2.749.708.752.471 1.323 1.138 1.713 2 .397.854.595 1.856.595 3.005 0 1.764-.441 3.165-1.323 4.205-.882 1.039-2.13 1.559-3.744 1.559-1.614 0-2.861-.51-3.743-1.529-.882-1.025-1.324-2.43-1.324-4.215 0-1.135.199-2.133.595-2.995.397-.861.971-1.531 1.723-2.01.759-.486 1.679-.728 2.759-.728Zm0 2.04c-.759 0-1.326.298-1.702.893-.369.595-.554 1.528-.554 2.8 0 1.286.185 2.226.554 2.82.369.589.933.883 1.692.883.759 0 1.323-.294 1.692-.882.37-.595.554-1.542.554-2.841 0-1.265-.184-2.192-.554-2.78-.369-.595-.929-.892-1.682-.892Zm9.341-6.358V24.5h-2.708V9.3l2.708-.287Zm7.138 4.626-4.03 4.84 4.42 6.021h-3.19l-4.184-5.949 4-4.912h2.984ZM153.975 22.633c.479 0 .926-.089 1.343-.266a6.937 6.937 0 0 0 1.221-.677l1.231 1.733a6.005 6.005 0 0 1-1.734.995c-.677.26-1.401.39-2.174.39-1.142 0-2.12-.236-2.933-.708a4.706 4.706 0 0 1-1.857-1.99c-.43-.854-.646-1.846-.646-2.974 0-1.115.219-2.11.657-2.985a5.04 5.04 0 0 1 1.887-2.061c.82-.506 1.798-.76 2.933-.76.78 0 1.484.114 2.113.34a5.507 5.507 0 0 1 1.743.984l-1.2 1.661a5.384 5.384 0 0 0-1.251-.636 3.988 3.988 0 0 0-1.323-.225c-.8 0-1.453.29-1.959.872-.499.574-.749 1.51-.749 2.81 0 1.285.257 2.191.77 2.718.512.52 1.155.78 1.928.78ZM164.782 9.3v12.041c0 .472.14.807.421 1.005.28.198.653.298 1.118.298.294 0 .577-.031.851-.093.273-.068.533-.15.779-.246l.667 1.846a6.108 6.108 0 0 1-1.251.462c-.486.13-1.05.195-1.693.195-1.182 0-2.078-.339-2.687-1.016-.608-.677-.913-1.59-.913-2.738v-9.836h-3.251V9.3h5.959Zm8.643 4.338v7.529c0 .588.117 1.001.349 1.24.232.24.571.36 1.015.36.424 0 .838-.127 1.241-.38.404-.26.732-.588.985-.984v-7.764h2.708V24.5h-2.359l-.144-1.333c-.39.533-.889.94-1.497 1.22-.609.28-1.238.42-1.887.42-1.047 0-1.83-.293-2.349-.881-.513-.595-.769-1.405-.769-2.431v-7.857h2.707Zm11.105 1.221a4.15 4.15 0 0 1 1.282-1.118 3.298 3.298 0 0 1 1.61-.41c1.416 0 2.441.52 3.077 1.559.636 1.032.954 2.417.954 4.154 0 1.114-.164 2.106-.492 2.974-.328.868-.817 1.552-1.467 2.051-.643.492-1.432.739-2.369.739-1.183 0-2.11-.448-2.78-1.344l-.123 1.036h-2.4V9.3l2.708-.287v5.846Zm1.897 7.928c.691 0 1.231-.294 1.621-.882.39-.588.585-1.532.585-2.83 0-1.375-.178-2.336-.534-2.883-.355-.553-.844-.83-1.466-.83-.452 0-.852.136-1.2.41a4.195 4.195 0 0 0-.903 1.015v4.862c.232.362.506.642.82.84.315.199.674.298 1.077.298Z"/></g><defs><clipPath id="a"><path fill="#fff" d="M0 0h192.857v36H0z"/></clipPath></defs></svg>
